!!!SOCIAL_FUNCTION:	bird dance songs
!!!PDT:	1932
!!!OTL: No_101_Song_in_the_Early_Evening_(b).krn
!!!REG: Southwest
!!!LANG: Non-Tone
!!!LING_GROUP: Yuman-Cochimi
**kern	**kern
*staff2	*staff1
=1-	=1-
*clefF4	*clefF4
*k[b-e-]	*k[b-e-]
*M2/4	*M2/4
8GG/L	8F\L
8GG/J	8F\J
8GG/	4F;\
16r	.
16GG/	.
=2	=2
8GG/L	8c\L
8GG/J	8c\J
8GG/	8B-\L
16r	8c\J
16GG/	.
=3||	=3||
*M3/4	*M3/4
2.r	4B-\
.	4G\
.	4r
=4||	=4||
*M2/4	*M2/4
2r	12B-\L
.	12G\
.	12G\J
.	8B-\L
.	8B-\J
=5	=5
2r	8F\L
.	8B-\J
.	8G\L
.	8B-\J
=6||	=6||
*M3/4	*M3/4
2.r	8.F\L
.	16D\Jk
.	8D\L
.	[8D\J
.	8.D\L]
.	16F\Jk
=7||	=7||
*M2/4	*M2/4
2r	8G\L
.	8B-\J
.	8D\L
.	8F\J
=8||	=8||
*M3/4	*M3/4
2.r	4F\
.	2r
=9||	=9||
*M2/4	*M2/4
2r	12B-\L
.	12G\
.	12G\J
.	8B-\L
.	8B-\J
=10	=10
2r	8F\L
.	8B-\J
.	8G\L
.	8B-\J
=11||	=11||
*M3/4	*M3/4
2.r	8.F\L
.	16D\Jk
.	8D\L
.	[8D\J
.	8.D\L]
.	16F\Jk
=12||	=12||
*M2/4	*M2/4
2r	8G\L
.	8B-\J
.	8D\L
.	8F\J
=13||	=13||
*M3/4	*M3/4
2.r	4F\
.	2r
=14	=14
2.r	2.r
=15	=15
*M2/4	*M2/4
2r	16F\LK
.	8.F\J
.	8F\
.	8r
=16	=16
2r	4c\
.	8B-\L
.	8c\J
=17||	=17||
*M3/4	*M3/4
2.r	4B-\
.	4G\
.	4r
=18||	=18||
*M2/4	*M2/4
2r	12B-\L
.	12G\
.	12G\J
.	8B-\L
.	8B-\J
=19	=19
2r	8F\L
.	8B-\J
.	8G\L
.	8B-\J
=20||	=20||
*M3/4	*M3/4
2.r	8.F\L
.	16D\Jk
.	8D\L
.	[8D\J
.	8.D\L]
.	16F\Jk
=21||	=21||
*M2/4	*M2/4
2r	8G\L
.	8B-\J
.	8D\L
.	8F\J
=22	=22
2r	4F\
.	4r
==	==
*-	*-
